src/actions/24/media-repeat-playlist-amarok.svg

<svg xmlns="http://www.w3.org/2000/svg" viewBox="0 0 24 24">
  <defs id="defs3051">
    <style type="text/css" id="current-color-scheme">
      .ColorScheme-Text {
        color:#2e3440;
      }
      </style>
  </defs>
 <path style="fill:currentColor;fill-opacity:1;stroke:none" 
     d="M 5.5 4 C 4.6715787 4 4.0000083 4.6715704 4 5.5 C 4.0000083 6.3284296 4.6715787 7 5.5 7 C 6.3284213 7 6.9999917 6.3284296 7 5.5 C 6.9999917 4.6715704 6.3284213 4 5.5 4 z M 8 5 L 8 6 L 9 6 L 9 5 L 8 5 z M 10 5 L 10 6 L 20 6 L 20 5 L 10 5 z M 10 7 L 10 8 L 13 8 L 13 7 L 10 7 z M 5.5 10 C 4.6715732 9.9999988 4 10.671572 4 11.5 C 4 12.328428 4.6715732 13.000001 5.5 13 C 6.3284268 13.000001 7 12.328428 7 11.5 C 7 10.671572 6.3284268 9.9999988 5.5 10 z M 8 11 L 8 12 L 9 12 L 9 11 L 8 11 z M 10 11 L 10 12 L 20 12 L 20 11 L 10 11 z M 13 13 L 11 14.5 L 13 16 L 13 15 L 18 15 C 18.554 15 19 15.446 19 16 L 20 16 C 20 14.89199 19.10801 14 18 14 L 13 14 L 13 13 z M 5.5 16 C 4.6715732 15.999999 4 16.671572 4 17.5 C 4 18.328428 4.6715732 19.000001 5.5 19 C 6.3284268 19.000001 7 18.328428 7 17.5 C 7 16.671572 6.3284268 15.999999 5.5 16 z M 8 17 L 8 18 L 9 18 L 9 17 L 8 17 z M 11 17 C 11 18.10801 11.89199 19 13 19 L 18 19 L 18 20 L 20 18.5 L 18 17 L 18 18 L 13 18 C 12.446 18 12 17.554 12 17 L 11 17 z "
     class="ColorScheme-Text"
     />
</svg>

<svg viewBox="0 0 24 24" xmlns="http://www.w3.org/2000/svg">
 <defs>
  <style type="text/css">.ColorScheme-Text {
        color:#2e3440;
      }</style>
 </defs>
 <path class="ColorScheme-Text" d="m5.5 4c-0.82842 0-1.5 0.67157-1.5 1.5 8.3e-6 0.82843 0.67158 1.5 1.5 1.5s1.5-0.67157 1.5-1.5c-8.3e-6 -0.82843-0.67158-1.5-1.5-1.5zm2.5 1v1h1v-1h-1zm2 0v1h10v-1h-10zm0 2v1h3v-1h-3zm-4.5 3c-0.82843-1.2e-6 -1.5 0.67157-1.5 1.5s0.67157 1.5 1.5 1.5c0.82843 1e-6 1.5-0.67157 1.5-1.5s-0.67157-1.5-1.5-1.5zm2.5 1v1h1v-1h-1zm2 0v1h10v-1h-10zm3 2-2 1.5 2 1.5v-1h5c0.554 0 1 0.446 1 1h1c0-1.108-0.89199-2-2-2h-5v-1zm-7.5 3c-0.82843-1e-6 -1.5 0.67157-1.5 1.5s0.67157 1.5 1.5 1.5c0.82843 1e-6 1.5-0.67157 1.5-1.5s-0.67157-1.5-1.5-1.5zm2.5 1v1h1v-1h-1zm3 0c0 1.108 0.89199 2 2 2h5v1l2-1.5-2-1.5v1h-5c-0.554 0-1-0.446-1-1h-1z" fill="currentColor"/>
</svg>
